X:1
T:James Gibb editions
T:Gloria et honore - Giorgi
T:#
%%score [ 1 2 3 4 ]
L:1/8
Q:1/4=108
M:4/4
K:C
V:1 treble nm="sop."
V:2 treble nm="ALT."
V:3 treble-8 nm="ten."
V:4 bass nm="bass."
V:1
"^Giovanni Giorgi\n(?-1762)"!f!"^Gloria et honore""^allegro" c2 cc G2 c2 | c2 B2 cBAG | %2
w: Glo- ri- a et ho-|no- re co- ro- na- sti|
 (^F2 !>!G4 F2) | G4 z4 |!mf! c3 c A2 =F2 |[M:4/4] (G2 E2 D4) |"^," E2 cc B2 e2 | (d4 c3 B | %8
w: e\- * *|um,|co- ro- na- sti|e\- * *|um, co- ro- na- sti|e\- * *|
 A2 B2 c2 A2) |"^," G2 GF E2 C2 | (C2 !>!c4 d2) | G4 z4 | c2 cc G2 c2 | c2 B2 cBAG | %14
w: |um, co- ro- na- sti|e\- * *|um,|glo- ri- a et ho-|no- re co- ro- na- sti|
 (^F2 !>!G4 F2) |"^," G8 | !>!g3 =f e2 c2 | z2 !>!g3 c f2- | f2 e2 d4 |"^," c4!p! G2 G2 | %20
w: e\- * *|um,|co- ro- na- sti,|co- ro- na\-|* sti e-|um, et con-|
 F2 F2 !>!E2 E2 | D4 E4 | z8 | z4 d2 d2 | c2 c2 !>!B2 B2 |"^cresc." (!>!A4 B2 c2- | %26
w: sti- tu- i- sti|e- um,||et con-|sti- tu- i- sti|e\- * *|
 c2 B2"^," c2) d2- | dGcc c2 B2 | (^c2 d4 c2 | d3 =c"^," B2 A2- | A2 ^G2 AB^cA | d2 e2)"^," A4 | %32
w: * * um, et|* con- sti- tu- i- sti|e\- * *|||* * um,|
!f! e2 e2 d2 d2 | =c2 c2 (B4 | ^c8 | d6 ^c2) | d4 z4 | d2 d2 =c2 c2 | B2 B2 !>!A4 | G4 z4 | %40
w: et con- sti- tu-|i- sti e\-|||um,|et con- sti- tu-|i- sti e-|urn,|
 A2 A2 G2 G2 | F2 F2 (E4 | D2 G4 ^FE | ^F4)"^," G4 | (c2 dc BGcB | AB c4) B2 |"^," c8 | %47
w: et con- sti- tu-|i- sti e\-||* um,|Do\- * * * * * *|* * * rni-|ne,|
 (A2 B2 GABG | c4"^," B2 e2- | e2 fe d2 c2 | c4) z4 | c3 d e2 cc | dcBG c2 B2 | A3 A"^," B4 | %54
w: Do\- * * * * *||* * * * mi-|ne,|su- per o- pe- ra|ma- nu- um tu- a- rum,|Do- mi- ne,|
 (c4 B4 | A4 ^G2 B2 |"^," E2 e4) d2 |"^," e2 (edcB A2 | ^G2 A3) !courtesy!^G G2 | (A2 BA ^GEA=G | %60
w: Do\- *||* * mi-|ne, Do\- * * * *|* * mi- ne,|Do\- * * * * * *|
 FD A4) ^G2 |"^," A2 A3 ABA | (!courtesy!=GA) (BG) c3 c |"^," B2 e3 Add | dG c4"^," B2 | %65
w: * * * mi-|ne, ma- nu- um tu-|a\- * rum, * Do- mi-|ne, et eon- sti- tu|i- sti e- um|
 c3 c d2 dd | cBAA (d2 c2) | c4 z4 | (c3 d/c/ BGgf | e2 ^f2) g4- | g4 z4 | z4 (g3 a/g/ | %72
w: su- per o- pe- ra|ma- nu- um tu- a\- *|rum,|Do\- * * * * * *|* mi- ne,||Do\- * *|
 f3 g/f/ e3 f/e/ | d3 e/d/[Q:1/4=105] c3[Q:1/4=103] d/[Q:1/4=102]c/ | %74
w: ||
[Q:1/4=101]!<(! B[Q:1/4=100]G"^rit."[Q:1/4=97] c4)!<)![Q:1/4=93] B2 | %75
w: * * * mi-|
[Q:1/4=92]!>(! !fermata!c8!>)! |] %76
w: ne.|
V:2
 z8 | z8 | z8 |!f! G2 GG C2 F2 | F2 E2 FEDC |[M:4/4] (B,2 !>!C4 B,2) | C4 z4 | G3 F E2 C2 | %8
w: |||Glo- ri- a et ho-|no- re co- ro- na- sti|e\- * *|um,|co- ro- na- sti|
 (D2 B,2 A,4) |"^," B,2 G4 A2 | (G4 F3 E | D2)"^," C2 (F4 | E8) | G8 | z8 | !>!G3 F E2 C2 | %16
w: e\- * *|um, co- ro-|na\- * *|* sti e\-||um,||co- ro- na- sti|
 (D4 G4- | G2 B2 E2 A2 | D2 EF G3 F) | E4 z2!p! E2- | EA,DD DG, (C2- | C2 B,2)"^," C4 | %22
w: e\- *|||um, et|* con- sti- tu- i- sti e\-|* * um,|
 D2 D2 C2 C2 | B,2 C2 (C2 B,2) |"^," E2 A3"^cresc." DGG | GC (F4 E2 | D2 GF E2 F2) | %27
w: et con- sti- tu-|i- sti e\- *|um, et con- sti- tu-|i- sti e\- *||
"^," D2 E2 ^F2 G2 | E2 =F2 (E2 AG | F2 A2 ^G2) E2 | z4 z2 A2- | ADGG G2 ^F2 | %32
w: um, con- sti- tu-|i- sti e\- * *|* * * um,|et|* con- sti- tu- i- sti|
 (^GE A4 !courtesy!^G2) |"^," A2 E2 D2 E2 | E4 E4 | (^F4 G4 | ^F4 E4) | D4 z4 | z2 G3 C=FF | %39
w: e\- * * *|um, con- sti- tu-|i- sti|e\- *||um,|et con- sti- tu-|
 F2 E2 D4 | E2 F2 D2 E2 | C2 D2 (B,2 C2 | A,2 B,2) C4 | z4 G3 G | A2 FF GFEC | F2 E2 D3 D | %46
w: i- sti e-|um, con- sti- tu|i- sti e\- *|* * um|su- per|o- pe- ra ma- nu- um tu-|a- rum, Do- mi-|
"^," C4 (G2 AG | ^FDG=F E^F G2- | G2) ^F2 G4 | z4 (G4 | A2 G2 F4- | F2 EF G2 A2- | A2 G2 G4 | %53
w: ne, Do. * *||* mi- ne,|Do\-|||* mi- ne,|
 z4 D3 D | E2 AA AA^GG | A2 E2 z4 | z4 A3 A | B2 ^GG A=GFD | E2 C2 B,3 B, |"^," A,4 E4 | %60
w: su- per|o- pe- ra ma- nu- um tu-|a- rum,|su- per|o- pe- ra ma- nu- um tu-|a- rum Do- mi-|ne, Do\-|
 D2 E2 D2) B,2 |"^," C2 (AG ^FDG=F | E^F G4) F2 | G4 z4 | G2 G2 =F2 F2 | E2 E2 (D2 GF | E2 A2) G4 | %67
w: * * * mi-|ne, Do\- * * * * *|* * * mi-|ne,|et con- sti- tu-|i- sti e\- * *|* * um,|
 z4 (F3 G/F/ | E3 F/E/ D2) D2 | C4 z4 | (G3 A/G/ F3 G/F/ | E3 F/E/ D3) C |"^," B,4 ((G4 | G4) A4 | %74
w: Do\- * *|* * * * mi-|ne,|Do\- * * * * *|* * * * mi-|ne, Do\-||
"^rit."!<(! G6)!<)! G2 |!>(! !fermata!G8!>)! |] %76
w: * mi-|ne.|
V:3
 z8 | z8 | z8 | z8 | z8 |[M:4/4][K:treble-8] z8 |!f! c2 cc G2 c2 | c2 B2 cBAG | (^F2 !>!G4 F2) | %9
w: ||||||Glo- ri- a et ho-|no- re co- ro- na- sti|e\- * *|
 G4 z4 | c3 c A2 !courtesy!=F2 | (G2 e2 d4) |"^," c2 c4 e2 | d4 G4 | z4 !>!c3 c | B2"^," G2 (c4- | %16
w: um,|co- ro- na- sti|e\- * *|um, co- ro-|na- sti,|co- ro-|na- sti e\-|
 c2 B2 cdec | d4 c4 | B2 c4 B2 | c8) | z8 | z4!p! c2 c2 | B2 B2 !>!A2 A2 | (G4 A2 B2 | A4) B4 | %25
w: |||um,||et con-|sti- tu- i- sti|e\- * *|* um,|
 z4"^cresc." G4 | G2 G2 A4 | G4 (A2 B2) | A4 z2 e2- | eAdd d2 c2 | B4"^," ^c2 A2 | B2 ^c2 d4- | %32
w: con-|sti- tu- i-|sti e\- *|um, et|* con- sti- tu- i- sti|e- um, con-|sti- tu- i\-|
 d2 !courtesy!=c2 (B4 | A6 ^G2) | A8- | A4 z4 |!f! d2 d2 =c2 c2 | B2 B2 A4 |"^," G2 G2 c2 d2 | %39
w: * sti e\-||um,||et con- sti- tu-|i- sti e-|um, con- sti- tu-|
 B2"^," c2 (c2 B2 | cAdc BGcB | AcBA GEAG | ^F2 G2 A3 B | c4) B4 | z8 | z8 | c3 d e2 cc | %47
w: i sti e\- *||||* um,|||su- per o- pe- ra|
 dcBG c2 B2 | A3 A"^," G4 | (c2 dc BGcB | AB c4) B2 | c8 | z2 (G3 ABG | c2) A2 G4 | z4 d3 d | %55
w: ma- nu- um tu- a- rum,|Do- mi- ne,|Do\- * * * * * *|* * * mi-|ne,|Do\- * * *|* mi- ne,|su- per|
 e2 cc dcBB | c2 B2 A3 A | ^G4 z4 | z4 (e3 d | c2 dc B2) A2 |"^," A4 d3 d | e2 cc dcBG | %62
w: o- pe- ra ma- nu- um tu\-||a- rum, Do- mi-|ne,|Do\- *|* * * * mi-|ne, su- per|o- pe- ra ma- nu- um tu-|
 c2 B2 A3 A |"^," G4 A2 A2 | G2 G2 A2 F2 | (G2 c4) B2 | (c2 dc BGcB | AB c4) B2 |"^," G8 | %69
w: a- rum, Do- mi-|ne, et con-|sti- tu- i- sti|e\- * um,|Do\- * * * * * *|* * * mi-|ne,|
 (c3 d/c/ BGgf | edcB A3) A | (G3 A) (BAB)c |"^," d2 (!>!d3 c/B/ c2- | c2 B2 A2 d2- | %74
w: Do\- * * * * * *|* * * * * ini-|ne, * Do\- * * mi-|ne, Do\- * * *||
"^rit."!<(! d2 e2 d3)!<)! d |!>(! !fermata!e8!>)! |] %76
w: * * * mi-|ne.|
V:4
 z8 | z8 | z8 | z8 | z8 |[M:4/4] z8 | z8 | z8 | z8 |!f! G,2 G,G, C,2 F,2 | F,2 E,2 F,E,D,C, | %11
w: |||||||||Glo- ri- a et ho-|no- re co- ro- na- sti|
 (B,,2 C,4 B,,2) | C,4 z4 | !>!G,3 F, E,2 C,2 | (D,2 B,,2 A,,4) | G,,4 z4 | z4 !>!C3 C | %17
w: e\- * *|um,|co- ro- na- sti|e\- * *|urn,|co- ro-|
 B,2 G,2 (A,4 | G,8) | C,8 | z8 | z4 z2!p! A,2- | A,D,G,G, G,(C, F,2- | F,2 E,2 ^F,2 G,2- | %24
w: na- sti e\-||um,||et|* con- sti- tu- i- sti e\-||
 G,2 ^F,2) G,4 | z8 | z2!p! G,3 C,F,F, | F,2 E,2 (D,2 G,2- | G,2 F,D, A,4 | D,4 E,4- | E,4 A,,4 | %31
w: * * um,||et con- sti- tu-|i- sti e\- *|||* um,|
 z8 | z8 | z8 |!f! A,2 A,2 G,2 G,2 | ^F,2 F,2 E,4- |"^," D,2 B,3 E,A,A, | A,D, G,4 ^F,2) | G,4 z4 | %39
w: |||et con- sti- tu-|i- sti e-|um, et con- sti- tu-|i- sti e\- *|am,|
 z4 z2 G,2- | G,C,F,F, F,B,, E,2- |"^," E,A,,D,D, D,G,, (C,2- | C,2 B,,2 A,,4- | A,,4) G,,4 | z8 | %45
w: et|* con- sti- tu- i- sti, et|* con- sti- tu- i- sti e\-||* um,||
 z8 | z8 | z8 | z4 G,3 G, | A,2 F,F, G,F,E,C, | F,2 E,2 D,3 D, |"^," C,4 (CB,A,G, | %52
w: |||su- per|o- pe- ra ma- nu- um tu-|a- rum, Do- mi-|ne, Do\- * * *|
 ^F,D,G,=F, E,^F, G,2- | G,2) ^F,2"^," G,4 | C3 C D2 B,B, | CB,A,A, B,2 ^G,2 | %56
w: |* mi- ne,|su- per o- pe- ra|ma- nu- um tu- a- rum,|
 (A,2 !courtesy!=G,2 F,3) F, | E,4 z4 | z4 E,3 E, | F,2 D,D, E,D,C,A,, | D,2 C,2 B,,3 B,, | %61
w: Do\- * * mi-|ne,|su- per|o- pe- ra ma- nu- um tu-|a- rum, Do- mi-|
 A,,4 z4 | z8 | G,2 G,2 F,2 F,2 | E,2 E,2 D,4 |"^," C,4 G,3 G, | A,2 F,F, G,F,E,C, | F,2 E,2 (D,4 | %68
w: ne,||et con- sti- tu-|i- sti e-|um, su- per|o- pe- ra ma- nu- um tu-|a- rum, Do\-|
 E,4 G,4 | A,3 A,) G,4"^," | (C,8- | C,4 G,4- | G,8 | G,6 ^F,2 |"^rit."!<(! G,6)!<)! G,2 | %75
w: |* mi- ne,|Do\-||||* mi-|
!>(! !fermata!C,8!>)! |] %76
w: ne.|

